frontend/public/images/quotes/antonopoulos.svg

<svg xmlns="http://www.w3.org/2000/svg" width="667" height="800" fill="none"><path fill="gray" fill-opacity=".08" d="M159.007 704.167c-.043 1.497-5.54 45.85-6.442 75.381-.504 16.495 0 20.452 0 20.452h187.573c-.722-3.019 6.258-24.57-3.176-100.374-.458-1.644-1.455-3.147-1.81-4.803-1.12-5.171-1.854-10.438-3.12-15.572-.961-3.887-.508-7.052 2.263-10.114 3.23-3.577 3.105-3.755.302-7.731l-.081-.116c-.704-.996-1.579-1.888-2.142-2.958-.501-.953-1.058-2.126-.936-3.122.527-4.315 1.456-8.587 1.927-12.907.655-6.038 1.732-12.149 1.359-18.151-.52-8.488-2.27-16.897-3.334-25.361-.221-1.742-.086-3.691.483-5.341a66.917 66.917 0 0 1 3.97-9.241c4.649-8.909 6.282-18.646 7.911-28.356l.084-.501c1.144-6.814 1.707-13.72 2.558-20.582.391-3.178 1.835-4.321 4.422-2.622 5.108 3.367 10.926 2.542 16.407 3.471 7.372 1.247 14.86 1.803 22.292 2.726.753.091 1.548.537 2.141 1.039 4.093 3.452 6.638 3.623 11.275 1.203 3.419-1.79 6.295-4.736 10.644-4.662 4.931.085 8.901-2.097 12.474-5.513 1.241-1.191 3.639-1.265 5.554-1.638 2.233-.427 4.723-.146 6.729-1.02 4.735-2.072 9.17-4.816 13.875-6.973 6.453-2.958 12.816-6.777 19.63-8.091 7.194-1.388 13.96-3.117 20.445-6.49 6.576-3.417 12.143-7.707 15.734-14.343 1.486-2.757 3.432-5.067 7.188-4.431.838.14 1.823-.183 2.649-.507 4.349-1.711 8.631-3.624 13.024-5.219 3.199-1.161 6.619-1.73 9.794-2.952 2.437-.942 4.708-2.366 6.94-3.767l.211-.132c.422-.269.587-1.485.391-2.108-.636-2.005.19-2.524 2.037-2.604 7.323-.311 14.248-1.851 20.182-6.545.893-.703 2.202-.953 3.364-1.234 3.946-.966 7.341-5.678 7.25-9.656-.031-1.302.575-3.007 1.504-3.862 1.83-1.687 2.521-3.496 1.64-5.702-.795-2.011-.294-3.331 1.156-4.852 2.637-2.763 1.921-7.102-1.291-9.21-.679-.446-1.45-.752-2.129-1.198-3.401-2.243-3.334-4.473.294-6.203 4.319-2.059 8.675-4.045 13.085-5.885 2.233-.929 4.178-1.815 3.585-4.748-.63-3.111-2.869-5.299-5.842-4.449-6.693 1.906-13.33 4.143-19.741 6.838-4.735 1.992-8.834 5.702-13.66 7.211-4.616 1.443-8.588 3.684-12.681 5.995l-.154.086c-7.157 4.04-12.528 10.713-20.523 13.543-3.818 1.35-7.354 3.471-11.116 5.011-9.237 3.777-18.523 7.443-27.816 11.092-2.171.849-4.704 1.057-6.594 2.291-4.356 2.842-8.773 3.123-13.654 1.84-3.108-.819-6.393-.147-8.418 2.365-2.453 3.049-5.414 3.648-8.901 3.312-2.019-.195-4.043-.397-6.044-.709-3.921-.611-7.622-.464-11.182 1.73-1.218.751-3.175 1.075-4.515.666-2.612-.801-4.784-.306-7.005.929-2.581 1.436-5.126 2.945-7.781 4.217-3.517 1.686-6.576.495-8.362-2.922-.392-.751-1.077-1.766-1.756-1.876-3.53-.58-7.102-1.974-10.553.697-.819.635-2.844.709-3.713.134-4.056-2.695-8.038-5.549-11.782-8.665-3.389-2.824-7.096-4.095-11.452-4.235-1.376-.049-2.845-1.125-4.044-2.023-1.933-1.449-3.438-3.899-5.554-4.59-7.298-2.371-13.899-5.537-18.542-11.917-.343-.476-.942-.77-1.419-1.149-2.239-1.784-3.542-4.009-4.032-6.918-.281-1.705-1.04-3.782-2.306-4.772-3.658-2.86-6.858-5.971-9.164-10.047-.538-.954-1.884-1.491-2.918-2.115-7.696-4.644-16.339-6.3-25.057-7.015-4.845-.398-8.466-1.87-11.543-5.549-1.628-1.956-2.013-3.362-.52-5.592 6.686-9.998 10.607-20.974 11.439-33.044.312-4.528 1.273-9.008 1.621-13.536.196-2.573-.055-5.231-.477-7.786-.324-1.931-1.431-3.721-1.847-5.646-.728-3.374-1.114-6.827-1.793-10.212-.459-2.286-2.348-10.856-4.628-17.287-2.627-7.405-5.496-11.002-8.695-16.991-2.246-4.199-7.666-7.45-12.382-9.442-15.636-6.594-30.856-3.019-45.691 3.447a3.868 3.868 0 0 0-1.23.88c-3.884 4.076-8.301 7.792-11.458 12.375-3.181 4.614-6.49 9.534-6.282 15.706.073 1.998-.324 4.009-.465 6.019-.331 4.792-.863 9.589-.844 14.38.006 2.102-.178 3.355-2.203 4.364-5.089 2.53-7.445 10.431-4.159 14.954 3.988 5.481 8.558 10.542 12.76 15.877.747.947 1.285 2.328 1.303 3.514.019 1.228-.715 2.469-1.26 4.125-1.187.916-3.303 1.974-4.521 3.666-1.254 1.742-1.4 4.242-2.446 6.185-2.686 4.968-2.435 11.306-10.259 13.53-8.051 2.286-15.276 7.45-22.861 11.349-5.653 2.903-10.901 6.649-16.432 9.527-11.402 5.934-21.117 13.732-30.006 22.71-4.832 4.882-7.426 11.073-8.362 17.918-.226 1.686-.379 3.428-.93 5.023-4.771 13.836-9.66 27.629-14.437 41.459-2.319 6.716-4.447 13.499-6.699 20.24-2.862 8.568-5.866 17.099-8.619 25.704-1.7 5.317-3.071 10.743-4.564 16.121-1.064 3.82-2.967 7.658-2.918 11.465.068 5.567-1.162 10.511-3.003 15.657-.777 2.169.924 5.219 1.498 7.865 4.02.104 4.772 3.893 6.95 6.093 1.56 1.564 3.205 3.098 5.016 4.345 3.016 2.072 6.118 4.046 9.323 5.806 2.478 1.362 5.084 2.994 7.782 3.336 5.175.66 9.469 2.604 13.152 6.179.477.464 1.168.794 1.823.99 6.27 1.894 12.51 3.948 18.86 5.531 4.741 1.179 9.604 2.041 14.498.177.973-.373 2.57-.135 3.444.458 3.395 2.322 4.301 8.959 2.019 12.473-.557.862-1.034 2.053-.93 3.025.563 5.292 4.717 7.291 8.919 8.947 1.799.709 2.808 1.589 2.68 3.459-.245 3.538-.618 7.064-.912 10.597-.067.776-.373 1.98 0 2.279 2.772 2.237 1.56 4.963.679 7.26-2.312 6.032-3.811 12.168-3.994 18.64Z"/></svg>

<svg width="667" height="800" viewBox="0 0 667 800" fill="none" xmlns="http://www.w3.org/2000/svg">
<path d="M159.007 704.167C158.964 705.664 153.467 750.017 152.565 779.548C152.061 796.043 152.565 800 152.565 800H340.138C339.416 796.981 346.396 775.43 336.962 699.626C336.504 697.982 335.507 696.479 335.152 694.823C334.032 689.652 333.298 684.385 332.032 679.251C331.071 675.364 331.524 672.199 334.295 669.137C337.525 665.56 337.4 665.382 334.597 661.406L334.516 661.29C333.812 660.294 332.937 659.402 332.374 658.332C331.873 657.379 331.316 656.206 331.438 655.21C331.965 650.895 332.894 646.623 333.365 642.303C334.02 636.265 335.097 630.154 334.724 624.152C334.204 615.664 332.454 607.255 331.39 598.791C331.169 597.049 331.304 595.1 331.873 593.45C332.956 590.284 334.295 587.179 335.843 584.209C340.492 575.3 342.125 565.563 343.754 555.853L343.838 555.352C344.982 548.538 345.545 541.632 346.396 534.77C346.787 531.592 348.231 530.449 350.818 532.148C355.926 535.515 361.744 534.69 367.225 535.619C374.597 536.866 382.085 537.422 389.517 538.345C390.27 538.436 391.065 538.882 391.658 539.384C395.751 542.836 398.296 543.007 402.933 540.587C406.352 538.797 409.228 535.851 413.577 535.925C418.508 536.01 422.478 533.828 426.051 530.412C427.292 529.221 429.69 529.147 431.605 528.774C433.838 528.347 436.328 528.628 438.334 527.754C443.069 525.682 447.504 522.938 452.209 520.781C458.662 517.823 465.025 514.004 471.839 512.69C479.033 511.302 485.799 509.573 492.284 506.2C498.86 502.783 504.427 498.493 508.018 491.857C509.504 489.1 511.45 486.79 515.206 487.426C516.044 487.566 517.029 487.243 517.855 486.919C522.204 485.208 526.486 483.295 530.879 481.7C534.078 480.539 537.498 479.97 540.673 478.748C543.11 477.806 545.381 476.382 547.613 474.981L547.824 474.849C548.246 474.58 548.411 473.364 548.215 472.741C547.579 470.736 548.405 470.217 550.252 470.137C557.575 469.826 564.5 468.286 570.434 463.592C571.327 462.889 572.636 462.639 573.798 462.358C577.744 461.392 581.139 456.68 581.048 452.702C581.017 451.4 581.623 449.695 582.552 448.84C584.382 447.153 585.073 445.344 584.192 443.138C583.397 441.127 583.898 439.807 585.348 438.286C587.985 435.523 587.269 431.184 584.057 429.076C583.378 428.63 582.607 428.324 581.928 427.878C578.527 425.635 578.594 423.405 582.222 421.675C586.541 419.616 590.897 417.63 595.307 415.79C597.54 414.861 599.485 413.975 598.892 411.042C598.262 407.931 596.023 405.743 593.05 406.593C586.357 408.499 579.72 410.736 573.309 413.431C568.574 415.423 564.475 419.133 559.649 420.642C555.033 422.085 551.061 424.326 546.968 426.637L546.814 426.723C539.657 430.763 534.286 437.436 526.291 440.266C522.473 441.616 518.937 443.737 515.175 445.277C505.938 449.054 496.652 452.72 487.359 456.369C485.188 457.218 482.655 457.426 480.765 458.66C476.409 461.502 471.992 461.783 467.111 460.5C464.003 459.681 460.718 460.353 458.693 462.865C456.24 465.914 453.279 466.513 449.792 466.177C447.773 465.982 445.749 465.78 443.748 465.468C439.827 464.857 436.126 465.004 432.566 467.198C431.348 467.949 429.391 468.273 428.051 467.864C425.439 467.063 423.267 467.558 421.046 468.793C418.465 470.229 415.92 471.738 413.265 473.01C409.748 474.696 406.689 473.505 404.903 470.088C404.511 469.337 403.826 468.322 403.147 468.212C399.617 467.632 396.045 466.238 392.594 468.909C391.775 469.544 389.75 469.618 388.881 469.043C384.825 466.348 380.843 463.494 377.099 460.378C373.71 457.554 370.003 456.283 365.647 456.143C364.271 456.094 362.802 455.018 361.603 454.12C359.67 452.671 358.165 450.221 356.049 449.53C348.751 447.159 342.15 443.993 337.507 437.613C337.164 437.137 336.565 436.843 336.088 436.464C333.849 434.68 332.546 432.455 332.056 429.546C331.775 427.841 331.016 425.764 329.75 424.774C326.092 421.914 322.892 418.803 320.586 414.727C320.048 413.773 318.702 413.236 317.668 412.612C309.972 407.968 301.329 406.312 292.611 405.597C287.766 405.199 284.145 403.727 281.068 400.048C279.44 398.092 279.055 396.686 280.548 394.456C287.234 384.458 291.155 373.482 291.987 361.412C292.299 356.884 293.26 352.404 293.608 347.876C293.804 345.303 293.553 342.645 293.131 340.09C292.807 338.159 291.7 336.369 291.284 334.444C290.556 331.07 290.17 327.617 289.491 324.232C289.032 321.946 287.143 313.376 284.863 306.945C282.236 299.54 279.367 295.943 276.168 289.954C273.922 285.755 268.502 282.504 263.786 280.512C248.15 273.918 232.93 277.493 218.095 283.959C217.642 284.154 217.208 284.478 216.865 284.839C212.981 288.915 208.564 292.631 205.407 297.214C202.226 301.828 198.917 306.748 199.125 312.92C199.198 314.918 198.801 316.929 198.66 318.939C198.329 323.731 197.797 328.528 197.816 333.319C197.822 335.421 197.638 336.674 195.613 337.683C190.524 340.213 188.168 348.114 191.454 352.637C195.442 358.118 200.012 363.179 204.214 368.514C204.961 369.461 205.499 370.842 205.517 372.028C205.536 373.256 204.802 374.497 204.257 376.153C203.07 377.069 200.954 378.127 199.736 379.819C198.482 381.561 198.336 384.061 197.29 386.004C194.604 390.972 194.855 397.31 187.031 399.534C178.98 401.82 171.755 406.984 164.17 410.883C158.517 413.786 153.269 417.532 147.738 420.41C136.336 426.344 126.621 434.142 117.732 443.12C112.9 448.002 110.306 454.193 109.37 461.038C109.144 462.724 108.991 464.466 108.44 466.061C103.669 479.897 98.7807 493.69 94.003 507.52C91.6845 514.236 89.5556 521.019 87.3044 527.76C84.4415 536.328 81.4378 544.859 78.685 553.464C76.9843 558.781 75.614 564.207 74.1214 569.585C73.057 573.405 71.1544 577.243 71.2034 581.05C71.2707 586.617 70.0411 591.561 68.1997 596.707C67.4228 598.876 69.1235 601.926 69.6985 604.572C73.7176 604.676 74.4701 608.465 76.6479 610.665C78.2078 612.229 79.8534 613.763 81.6642 615.01C84.6801 617.082 87.7816 619.056 90.9871 620.816C93.4647 622.178 96.0707 623.81 98.7685 624.152C103.944 624.812 108.238 626.756 111.921 630.331C112.398 630.795 113.089 631.125 113.744 631.321C120.014 633.215 126.254 635.269 132.604 636.852C137.345 638.031 142.208 638.893 147.102 637.029C148.075 636.656 149.672 636.894 150.546 637.487C153.941 639.809 154.847 646.446 152.565 649.96C152.008 650.822 151.531 652.013 151.635 652.985C152.198 658.277 156.352 660.276 160.554 661.932C162.353 662.641 163.362 663.521 163.234 665.391C162.989 668.929 162.616 672.455 162.322 675.988C162.255 676.764 161.949 677.968 162.322 678.267C165.094 680.504 163.882 683.23 163.001 685.527C160.689 691.559 159.19 697.695 159.007 704.167Z" fill="#808080" fill-opacity="0.08"/>
</svg>
